images/header/logo.svg

<svg width="164" height="34" viewBox="0 0 164 34" fill="none" xmlns="http://www.w3.org/2000/svg">
<path d="M7.76555 0C9.82456 0 11.7992 0.81789 13.2552 2.27374C14.7111 3.72959 15.5291 5.70415 15.5291 7.76304C15.5291 9.82193 14.7111 11.7965 13.2552 13.2523C11.7992 14.7082 9.82456 15.5261 7.76555 15.5261C5.70654 15.5261 3.73186 14.7082 2.27592 13.2523C0.81998 11.7965 0.00204287 9.82193 0.00204287 7.76304C0.00204287 5.70415 0.81998 3.72959 2.27592 2.27374C3.73186 0.81789 5.70654 0 7.76555 0ZM15.527 26.237C15.527 27.7723 15.0717 29.2732 14.2186 30.5499C13.3656 31.8265 12.1531 32.8215 10.7345 33.4091C9.31588 33.9966 7.7549 34.1504 6.24892 33.8508C4.74295 33.5513 3.35963 32.8119 2.27388 31.7263C1.18814 30.6406 0.448734 29.2573 0.149177 27.7514C-0.15038 26.2456 0.00336409 24.6847 0.590965 23.2662C1.17857 21.8477 2.17364 20.6352 3.45034 19.7822C4.72704 18.9292 6.22803 18.4739 7.76351 18.4739C10.6038 18.4739 13.3278 17.3457 15.3363 15.3374C17.3447 13.3291 18.473 10.6052 18.473 7.76508C18.473 6.22969 18.9283 4.72879 19.7814 3.45216C20.6344 2.17554 21.8469 1.18053 23.2655 0.592965C24.6841 0.00539899 26.2451 -0.148334 27.7511 0.151204C29.257 0.450743 30.6404 1.1901 31.7261 2.27578C32.8119 3.36146 33.5513 4.7447 33.8508 6.25058C34.1504 7.75647 33.9966 9.31736 33.409 10.7359C32.8214 12.1544 31.8264 13.3668 30.5497 14.2198C29.273 15.0728 27.772 15.5281 26.2365 15.5281C23.3965 15.5287 20.673 16.6571 18.6651 18.6654C16.6571 20.6736 15.5291 23.3971 15.5291 26.237H15.527ZM26.2365 34C24.1775 34 22.2028 33.1821 20.7469 31.7263C19.2909 30.2704 18.473 28.2958 18.473 26.237C18.473 24.1781 19.2909 22.2035 20.7469 20.7477C22.2028 19.2918 24.1775 18.4739 26.2365 18.4739C28.2955 18.4739 30.2702 19.2918 31.7261 20.7477C33.1821 22.2035 34 24.1781 34 26.237C34 28.2958 33.1821 30.2704 31.7261 31.7263C30.2702 33.1821 28.2955 34 26.2365 34ZM26.2365 28.5773C26.8572 28.5773 27.4525 28.3307 27.8914 27.8918C28.3304 27.4529 28.577 26.8576 28.577 26.237C28.577 25.6163 28.3304 25.021 27.8914 24.5821C27.4525 24.1432 26.8572 23.8966 26.2365 23.8966C25.6158 23.8966 25.0204 24.1432 24.5815 24.5821C24.1426 25.021 23.896 25.6163 23.896 26.237C23.896 26.8576 24.1426 27.4529 24.5815 27.8918C25.0204 28.3307 25.6158 28.5773 26.2365 28.5773ZM7.76555 28.5773C8.38628 28.5773 8.98158 28.3307 9.42051 27.8918C9.85943 27.4529 10.106 26.8576 10.106 26.237C10.106 25.6163 9.85943 25.021 9.42051 24.5821C8.98158 24.1432 8.38628 23.8966 7.76555 23.8966C7.14482 23.8966 6.54951 24.1432 6.11059 24.5821C5.67166 25.021 5.42508 25.6163 5.42508 26.237C5.42508 26.8576 5.67166 27.4529 6.11059 27.8918C6.54951 28.3307 7.14482 28.5773 7.76555 28.5773ZM26.2365 10.1034C26.8572 10.1034 27.4525 9.8568 27.8914 9.4179C28.3304 8.97901 28.577 8.38373 28.577 7.76304C28.577 7.14235 28.3304 6.54708 27.8914 6.10818C27.4525 5.66928 26.8572 5.42271 26.2365 5.42271C25.6158 5.42271 25.0204 5.66928 24.5815 6.10818C24.1426 6.54708 23.896 7.14235 23.896 7.76304C23.896 8.38373 24.1426 8.97901 24.5815 9.4179C25.0204 9.8568 25.6158 10.1034 26.2365 10.1034ZM7.76555 10.1034C8.38628 10.1034 8.98158 9.8568 9.42051 9.4179C9.85943 8.97901 10.106 8.38373 10.106 7.76304C10.106 7.14235 9.85943 6.54708 9.42051 6.10818C8.98158 5.66928 8.38628 5.42271 7.76555 5.42271C7.14482 5.42271 6.54951 5.66928 6.11059 6.10818C5.67166 6.54708 5.42508 7.14235 5.42508 7.76304C5.42508 8.38373 5.67166 8.97901 6.11059 9.4179C6.54951 9.8568 7.14482 10.1034 7.76555 10.1034Z" fill="white"/>
<path d="M47.588 16.354H54.694V19.72H47.588V16.354ZM47.896 25H43.54V9.6H55.618V12.966H47.896V25ZM62.1407 25V13.054H57.4107V9.6H71.2047V13.054H66.4967V25H62.1407ZM81.4298 25V9.6H88.4698C89.8778 9.6 91.0878 9.82733 92.0998 10.282C93.1265 10.7367 93.9185 11.3967 94.4758 12.262C95.0332 13.1127 95.3118 14.1247 95.3118 15.298C95.3118 16.4567 95.0332 17.4613 94.4758 18.312C93.9185 19.1627 93.1265 19.8227 92.0998 20.292C91.0878 20.7467 89.8778 20.974 88.4698 20.974H83.8498L85.7858 19.082V25H81.4298ZM85.7858 19.544L83.8498 17.542H88.2058C89.1152 17.542 89.7898 17.344 90.2298 16.948C90.6845 16.552 90.9118 16.002 90.9118 15.298C90.9118 14.5793 90.6845 14.022 90.2298 13.626C89.7898 13.23 89.1152 13.032 88.2058 13.032H83.8498L85.7858 11.03V19.544ZM98.5357 25V9.6H102.892V21.546H110.24V25H98.5357ZM111.366 25L118.164 9.6H122.454L129.274 25H124.742L119.418 11.734H121.134L115.81 25H111.366ZM115.084 22.008L116.206 18.796H123.73L124.852 22.008H115.084ZM131.609 25V9.6H135.195L143.687 19.852H141.993V9.6H146.261V25H142.675L134.183 14.748H135.877V25H131.609ZM154.437 15.562H161.587V18.818H154.437V15.562ZM154.745 21.634H162.797V25H150.433V9.6H162.511V12.966H154.745V21.634Z" fill="white"/>
</svg>

<svg width="164" height="34" fill="none" xmlns="http://www.w3.org/2000/svg"><path d="M7.766 0a7.764 7.764 0 1 1 0 15.528A7.764 7.764 0 0 1 7.766 0Zm7.761 26.237a7.763 7.763 0 1 1-7.763-7.763A10.71 10.71 0 0 0 18.473 7.765a7.762 7.762 0 1 1 7.764 7.763 10.71 10.71 0 0 0-10.708 10.709h-.002ZM26.237 34a7.764 7.764 0 1 1 0-15.528 7.764 7.764 0 0 1 0 15.528Zm0-5.423a2.34 2.34 0 1 0 0-4.68 2.34 2.34 0 0 0 0 4.68Zm-18.471 0a2.34 2.34 0 1 0 0-4.68 2.34 2.34 0 0 0 0 4.68Zm18.47-18.474a2.34 2.34 0 1 0 0-4.68 2.34 2.34 0 0 0 0 4.68Zm-18.47 0a2.34 2.34 0 1 0 0-4.68 2.34 2.34 0 0 0 0 4.68ZM47.588 16.354h7.106v3.366h-7.106v-3.366ZM47.896 25H43.54V9.6h12.078v3.366h-7.722V25Zm14.245 0V13.054h-4.73V9.6h13.794v3.454h-4.708V25H62.14Zm19.289 0V9.6h7.04c1.408 0 2.618.227 3.63.682 1.026.455 1.819 1.115 2.376 1.98.557.85.836 1.863.836 3.036 0 1.159-.279 2.163-.836 3.014-.558.85-1.35 1.51-2.376 1.98-1.012.455-2.222.682-3.63.682h-4.62l1.936-1.892V25H81.43Zm4.356-5.456-1.936-2.002h4.356c.91 0 1.584-.198 2.024-.594.454-.396.682-.946.682-1.65 0-.719-.228-1.276-.682-1.672-.44-.396-1.115-.594-2.024-.594H83.85l1.936-2.002v8.514ZM98.536 25V9.6h4.356v11.946h7.348V25H98.536Zm12.83 0 6.798-15.4h4.29l6.82 15.4h-4.532l-5.324-13.266h1.716L115.81 25h-4.444Zm3.718-2.992 1.122-3.212h7.524l1.122 3.212h-9.768ZM131.609 25V9.6h3.586l8.492 10.252h-1.694V9.6h4.268V25h-3.586l-8.492-10.252h1.694V25h-4.268Zm22.828-9.438h7.15v3.256h-7.15v-3.256Zm.308 6.072h8.052V25h-12.364V9.6h12.078v3.366h-7.766v8.668Z" fill="#fff"/></svg>
